X: 21322
T: Kenny Gillies Of Portnalong
R: jig
M: 6/8
K: Amajor
|:e|AAA e2c|efa f2e|faa AAA|fec cBB|
AAA e2c|efa f2e|eff fec|BAA A2:|
|:e|a3 AAA|cea fee|faa AAA|fec cBB|
[1 a3 AAA|cea f2e|eff fec|BAA A2:|
[2 AAA e2c|efa f2e|eff fec|BAA A2||
|:e|AAA cBc|AeA fee|faa AAA|fec cBB|
AAA cBc|AeA fee|eff fec|BAA A2:|
|:e|c2e aga|Ace fee|faa AAA|fec cBB|
[1 c2e aga|Ace fee|faa fec|BAA A2:|
[2 AAA cBc|AeA fee|eff fec|BAA A2||

